X:1
T: Allana Creighton
C:
R:Jig
Q:180
K:F
M:6/8
L:1/16
C2|A4A2 A2_A2=A2|G4F2 C6|A2_A2=A2 B4A2|D6D6|E2D2E2 G4B2|e6d6|d2B2c2 d4c2|A6 A4C2|
A4A2 A2_A2=A2|G4F2 C6|A2_A2=A2 B4A2|D6D6|E2D2E2 G4B2|e6d6|c2d2c2 C2D2E2|F6 F4G2|
F4f2 f2e2g2|e4d2 c6|c2=B2c2 A4c2|B6 B4A2|G4g2 g2_g2=g2|f4e2 e4d2|c2=B2c2 d4c2|A6 A4G2|
F4f2 f2e2f2|e4d2 c6|f2e2f2 e4_e2|d6 d4e2|f2e2f2 e4d2|c6A6|c2=B2c2 C2D2E2|F6F4||
